X:6
T:No.68 Con Cassidy's Jig
C:jig
M:6/8
L:1/8
K:G
dc||B3BAB|d2c AGF|G3GFG|
BAGA2B|c3cBc|e2dB2c|
ded cBA|[1GAFG2A:|[2GAFG2g||
f2d def|g3a2g|f2d ded|
c2AA2g|f2d def|gfga2g|
fed ed^c|[1d2d d2g:|[2ded cdc||
